!!!OTL: MAEDCHEN SAG MIRS FUER GEWISS
!!!ARE: Europa, Mitteleuropa, Deutschland, Rheinpfalz
!!!SCT: E1420A
!!!YEM: Copyright 1995, estate of Helmut Schaffrath.
**kern
*ICvox
*Ivox
*M4/4
*k[f#]
*G:
=1
{4d
4g
4f#
4a
=2
4g
4e
2d}
=3
{4b
4b
4a
4dd
=4
4cc
4b
2a}
=5
{4a
4a
4a
8g
8a
=6
4b
4dd
4b
4g}
=7
{4a
4a
4a
8g
8a
=8
4b
4dd
4b
4g}
=9
{2cc
4b
4b
=10
8ee
8dd
8cc
8ee
4dd
4r}
=11
{2cc
4b
4g
=12
8b
8a
8a
8f#
4g
4r}
==
!!!AGN: Staende -, Soldaten - Lied
!!!ONB: ESAC (Essen Associative Code) Database: ERK3
!!!AMT: simple quadruple
!!!AIN: vox
!!!EED: Helmut Schaffrath
!!!EEV: 1.0
*-
